X: 100411
T: O DEAR WHAT CAN THE MATTER BE? -- Variations
B: K\"ohler's Violin Repository, v.3, 1885 p.265
F: http://www.archive.org/details/klersviolinrepos03rugg
Z: 2012 John Chambers <jc:trillian.mit.edu>
N: Some of the endings require adjusting to hold a steady beat.
M: 6/8
L: 1/16
Q: "Allegretto."
K: G
|:\
vd6 d6 | d2B2g2 d2B2G2 | c6 c6 | c2A2B2 c2B2A2 |\
d6 d6 | d2B2g2 d2B2G2 | E2A2c2 B2c2A2 | G6- G4 :|
|: ud2 |\
d2B2c2 d2B2c2 | d2B2g2 d2B2G2 | c2A2B2 c2A2B2 | c2A2B2 c2B2A2 |\
d2B2c2 d2B2c2 | d2B2g2 d2B2G2 | E2A2c2 B2c2A2 | G6- G4 :|
|: z2 |\
(vdg)bagf (ed)gfed | (cB)edcB (AG)cBAG | Fac'bag feagfe | (dc)fedc (BA)dcBA |
Gbd'c'ba gfbagf | (ed)gfed (cB)edcB | (AG)cBAG (FA)dcBA | G6- G4 :|
|: ud2 |\
dcBcde dcBcde | (dg)bagf (ed)cBAG | cBABcd cBABcd | cac'bag fedcBA |
BABGAB cBcABc | dbd'c'ba gfedcB | (Ac)ecAG (FA)dcBA | G6- G4 :|
|: ((3uDEF) |\
G2D2B2 G2d2B2 | g2d2b2 g2d2B2 | c2A2F2 A2F2C2 | F2D2C2 D2C2A,2 |\
B,2G,2D2 B,2G2D2 | B2G2d2 B2G2D2 | (E2A2c2) (B2c2A2) | G6- G4 :|
|: ud2 |\
{e}d2^c2d2 {E}D2^C2D2 | g2f2g2 {E}D2^C2D2 | {d}c2B2c2 {E}D2^C2D2 | a2^g2a2 {E}D2^C2D2 |\
(B2^A2B2) (G2F2G2) | (g2f2g2) (E2^D2E2) | (G2^G2A2) (A2=G2F2) | G6- G4 :|
|: z2 |\
vd2(GB)dg d2(Bd)gb | g2(dg)bd' b2(ga)bg | c'2(c'a)fd c2(af)dc | A2(cA)FD C2(AF)DC |
B,2(G,B,)DG D2(B,D)GB | G2(DG)Bd B2(GB)dg | e2(EA)ce d2(DF)AF | G6- G2 :|
|: (uGABc) |\
d2(dcBA) G2(BAGF) | E2(GFED) C2(ABcd) | e2(edcB) A2(cBAG) | F2(AGFE) D2(DEFD) |
G2(GFGA) B2(BABc) | d2(defd) g2(gfed) | c2(edcB) A2(dcBA) | "^D.C. for Finale."G6- G4 :|

%%sep 2 1 500

